static/images/skills/html.svg

<svg xmlns="http://www.w3.org/2000/svg" xml:space="preserve" style="fill-rule:evenodd;clip-rule:evenodd;stroke-linejoin:round;stroke-miterlimit:2" viewBox="0 0 1200 900"><path d="M0 0h1200v900H0z" style="fill:#7c240e"/><path d="M19.037 113.876 9.032 1.661h109.936l-10.016 112.198-45.019 12.48z" style="fill:#e44d26;fill-rule:nonzero" transform="translate(292.007 142.007)scale(4.81241)"/><path d="m64 116.8 36.378-10.086 8.559-95.878H64z" style="fill:#f16529;fill-rule:nonzero" transform="translate(292.007 142.007)scale(4.81241)"/><path d="M64 52.455H45.788L44.53 38.361H64V24.599H29.489l.33 3.692 3.382 37.927H64zm0 35.743-.061.017-15.327-4.14-.979-10.975H33.816l1.928 21.609 28.193 7.826.063-.017z" style="fill:#ebebeb;fill-rule:nonzero" transform="translate(292.007 142.007)scale(4.81241)"/><path d="M63.952 52.455v13.763h16.947l-1.597 17.849-15.35 4.143v14.319l28.215-7.82.207-2.325 3.234-36.233.335-3.696zm0-27.856v13.762h33.244l.276-3.092.628-6.978.329-3.692z" style="fill:#fff;fill-rule:nonzero" transform="translate(292.007 142.007)scale(4.81241)"/></svg>

<?xml version="1.0" encoding="UTF-8" standalone="no"?>
<!DOCTYPE svg PUBLIC "-//W3C//DTD SVG 1.1//EN" "http://www.w3.org/Graphics/SVG/1.1/DTD/svg11.dtd">
<svg width="100%" height="100%" viewBox="0 0 1200 900" version="1.1" xmlns="http://www.w3.org/2000/svg" xmlns:xlink="http://www.w3.org/1999/xlink" xml:space="preserve" xmlns:serif="http://www.serif.com/" style="fill-rule:evenodd;clip-rule:evenodd;stroke-linejoin:round;stroke-miterlimit:2;">
    <rect x="0" y="0" width="1200" height="900" style="fill:rgb(124,36,14);"/>
    <g transform="matrix(4.79233,0,0,4.79233,293.291,143.291)">
        <g transform="matrix(1.00419,0,0,1.00419,-0.267954,-0.267954)">
            <path d="M19.037,113.876L9.032,1.661L118.968,1.661L108.952,113.859L63.933,126.339L19.037,113.876Z" style="fill:rgb(228,77,38);fill-rule:nonzero;"/>
        </g>
        <g transform="matrix(1.00419,0,0,1.00419,-0.267954,-0.267954)">
            <path d="M64,116.8L100.378,106.714L108.937,10.836L64,10.836L64,116.8Z" style="fill:rgb(241,101,41);fill-rule:nonzero;"/>
        </g>
        <g transform="matrix(1.00419,0,0,1.00419,-0.267954,-0.267954)">
            <path d="M64,52.455L45.788,52.455L44.53,38.361L64,38.361L64,24.599L29.489,24.599L29.819,28.291L33.201,66.218L64,66.218L64,52.455ZM64,88.198L63.939,88.215L48.612,84.075L47.633,73.1L33.816,73.1L35.744,94.709L63.937,102.535L64,102.518L64,88.198Z" style="fill:rgb(235,235,235);fill-rule:nonzero;"/>
        </g>
        <g transform="matrix(1.00419,0,0,1.00419,-0.267954,-0.267954)">
            <path d="M63.952,52.455L63.952,66.218L80.899,66.218L79.302,84.067L63.952,88.21L63.952,102.529L92.167,94.709L92.374,92.384L95.608,56.151L95.943,52.455L63.952,52.455ZM63.952,24.599L63.952,38.361L97.196,38.361L97.472,35.269L98.1,28.291L98.429,24.599L63.952,24.599Z" style="fill:white;fill-rule:nonzero;"/>
        </g>
    </g>
</svg>
